build/img/icon-adaptive.svg

<svg width="69" height="61" viewBox="0 0 69 61" fill="none" xmlns="http://www.w3.org/2000/svg">
  <path d="M56.5868 0.322266C55.677 0.322266 8.62901 0.322266 8.36527 0.322266C5.85351 0.322266 3.81006 2.36572 3.81006 4.87748V39.0454C3.81006 41.2669 5.45636 43.1922 7.64711 43.5432L8.46756 44.1982H55.7768L57.3051 43.5432C59.4959 43.1922 61.1422 41.2669 61.1422 39.0454C61.1422 37.9085 61.1422 5.90574 61.1422 4.87748C61.142 2.36572 59.0986 0.322266 56.5868 0.322266V0.322266Z" fill="#365E7D"/>
  <path d="M8.15544 39.0454V4.87748C8.15544 2.36572 10.1989 0.322266 12.7107 0.322266C10.0581 0.322266 8.41392 0.322266 8.36527 0.322266C5.85351 0.322266 3.81006 2.36572 3.81006 4.87748V39.0454C3.81006 41.2669 5.45636 43.1922 7.64711 43.5432L8.46756 44.1982H12.8129L11.9925 43.5432C9.80174 43.1922 8.15544 41.2669 8.15544 39.0454V39.0454Z" fill="#2B4D66"/>
  <path d="M56.4956 8.36914H8.729L7.90234 9.23204V38.672C7.90234 39.1233 8.26823 39.4894 8.71956 39.4894H56.2327C56.684 39.4894 57.0499 39.1233 57.0499 38.672C57.0499 37.9002 57.0499 10.1253 57.0499 9.23204L56.4956 8.36914Z" fill="#E4F6FF"/>
  <path d="M13.2149 38.672V9.23204L14.0416 8.36914H8.729L7.90234 9.23204V38.672C7.90234 39.1233 8.26823 39.4894 8.71956 39.4894H14.0322C13.581 39.4894 13.2149 39.1233 13.2149 38.672Z" fill="#D3EFFB"/>
  <path d="M13.2149 4.38477H8.71956C8.26823 4.38477 7.90234 4.75065 7.90234 5.20212V9.23175H13.2149L13.5644 8.85898V4.64419L13.2149 4.38477Z" fill="#DD636E"/>
  <path d="M56.2327 4.38477C54.1221 4.38477 14.8876 4.38477 13.2148 4.38477V9.23175H57.0498V5.20212C57.0499 4.75079 56.684 4.38477 56.2327 4.38477V4.38477Z" fill="#B1E4F9"/>
  <path d="M64.1918 43.5449H0.760617C0.340553 43.5449 0 43.8887 0 44.313V46.9546C0 48.9147 1.58821 50.5184 3.52924 50.5184H61.4231C63.3641 50.5184 64.9523 48.9147 64.9523 46.9546V44.313C64.9524 43.8887 64.6119 43.5449 64.1918 43.5449Z" fill="#407093"/>
  <path d="M7.90239 46.9527V44.311C7.90239 43.8869 8.24294 43.543 8.663 43.543H0.760617C0.340553 43.543 0 43.8868 0 44.311V46.9527C0 48.9127 1.58821 50.5164 3.52924 50.5164H11.4316C9.4906 50.5164 7.90239 48.9127 7.90239 46.9527V46.9527Z" fill="#365E7D"/>
  <path d="M68.2765 53.0652V25.9466L68.9997 25.2622C68.9997 23.5503 68.9997 22.4335 68.9997 22.2156C68.9997 20.6511 67.7314 19.3828 66.1669 19.3828H48.7805C47.216 19.3828 45.9478 20.6511 45.9478 22.2156V25.2622L46.7576 25.9929V53.3202L45.9478 53.8215V57.8469C45.9478 59.4114 47.216 60.6797 48.7805 60.6797H66.1669C67.7314 60.6797 68.9997 59.4114 68.9997 57.8469C68.9997 57.5898 68.9997 56.0822 68.9997 53.8215L68.2765 53.0652Z" fill="#365E7D"/>
  <path d="M50.1243 57.8468V53.8214L50.9341 53.32V25.9929L50.1243 25.2622V22.2156C50.1243 20.6511 51.3926 19.3828 52.9571 19.3828H48.7805C47.216 19.3828 45.9478 20.6511 45.9478 22.2156V25.2622L46.7576 25.9929V53.3202L45.9478 53.8215V57.8469C45.9478 59.4114 47.216 60.6797 48.7805 60.6797H52.9571C51.3926 60.6796 50.1243 59.4113 50.1243 57.8468V57.8468Z" fill="#294B64"/>
  <path d="M31.7819 33.0668C36.5908 33.0668 40.4891 29.1684 40.4891 24.3596C40.4891 19.5507 36.5908 15.6523 31.7819 15.6523C26.9731 15.6523 23.0747 19.5507 23.0747 24.3596C23.0747 29.1684 26.9731 33.0668 31.7819 33.0668Z" fill="#DD636E"/>
  <path d="M26.4067 24.3596C26.4067 20.1206 29.4362 16.591 33.4479 15.8134C32.9084 15.7088 32.3518 15.6523 31.7819 15.6523C26.9731 15.6523 23.0747 19.5507 23.0747 24.3596C23.0747 29.1684 26.9731 33.0668 31.7819 33.0668C32.3518 33.0668 32.9084 33.0103 33.4479 32.9057C29.4362 32.1281 26.4067 28.5985 26.4067 24.3596V24.3596Z" fill="#DA4A54"/>
  <path d="M35.3253 23.4591L30.8571 20.4123C30.1326 19.9182 29.1509 20.4371 29.1509 21.314V27.4076C29.1509 28.2845 30.1326 28.8033 30.8571 28.3093L35.3253 25.2625C35.9607 24.8292 35.9607 23.8923 35.3253 23.4591Z" fill="#F4FBFF"/>
  <path d="M32.4828 21.5207L30.8571 20.4123C30.1326 19.9182 29.1509 20.4371 29.1509 21.314V27.4076C29.1509 28.2845 30.1326 28.8033 30.8571 28.3093L32.4828 27.2008V21.5207Z" fill="#E4F6FF"/>
  <path d="M45.9478 29.2324H68.9997V53.8215H45.9478V29.2324Z" fill="#90D8F9"/>
  <path d="M45.9478 29.2324H50.124V53.8215H45.9478V29.2324Z" fill="#75CEF9"/>
  <path d="M58.5808 58.0707H56.3674C55.7923 58.0707 55.3262 57.6045 55.3262 57.0295C55.3262 56.4544 55.7923 55.9883 56.3674 55.9883H58.5808C59.1558 55.9883 59.622 56.4544 59.622 57.0295C59.622 57.6045 59.1558 58.0707 58.5808 58.0707Z" fill="#365E7D"/>
  <path d="M57.4736 49.0625C61.6589 49.0625 65.0518 45.6697 65.0518 41.4844C65.0518 37.2991 61.6589 33.9062 57.4736 33.9062C53.2884 33.9062 49.8955 37.2991 49.8955 41.4844C49.8955 45.6697 53.2884 49.0625 57.4736 49.0625Z" fill="#DD636E"/>
  <path d="M52.7589 41.4865C52.7589 37.7908 55.4049 34.7148 58.9054 34.0451C58.4415 33.9564 57.9634 33.9082 57.4736 33.9082C53.2884 33.9082 49.8955 37.3011 49.8955 41.4865C49.8955 45.6718 53.2884 49.0646 57.4736 49.0646C57.9634 49.0646 58.4415 49.0164 58.9054 48.9277C55.4049 48.2582 52.7589 45.182 52.7589 41.4865Z" fill="#DA4A54"/>
  <path d="M45.9478 25.2617H50.1935V29.4292H45.9478V25.2617Z" fill="#DD636E"/>
  <path d="M50.124 25.2617V29.4292H68.9999V25.2617C66.7055 25.2617 52.445 25.2617 50.124 25.2617V25.2617Z" fill="#B1E4F9"/>
  <path d="M60.558 40.7011L56.6692 38.0495C56.0386 37.6196 55.1841 38.0712 55.1841 38.8344V44.1378C55.1841 44.901 56.0386 45.3526 56.6692 44.9227L60.558 42.2709C61.1111 41.8937 61.1111 41.0782 60.558 40.7011Z" fill="#F4FBFF"/>
  <path d="M58.0476 38.9894L56.6692 38.0495C56.0386 37.6196 55.1841 38.0711 55.1841 38.8344V44.1378C55.1841 44.901 56.0386 45.3526 56.6692 44.9226L58.0476 43.9827V38.9894Z" fill="#E4F6FF"/>
</svg>

<svg width="69" height="61" fill="none" xmlns="http://www.w3.org/2000/svg"><path d="M56.587.322H8.365A4.56 4.56 0 003.81 4.877v34.168c0 2.222 1.646 4.147 3.837 4.498l.82.655h47.31l1.528-.655a4.584 4.584 0 003.837-4.498V4.877A4.56 4.56 0 0056.587.322z" fill="#365E7D"/><path d="M8.155 39.045V4.877A4.56 4.56 0 0112.711.322H8.365A4.56 4.56 0 003.81 4.877v34.168c0 2.222 1.646 4.147 3.837 4.498l.82.655h4.346l-.82-.655c-2.191-.35-3.838-2.276-3.838-4.498z" fill="#2B4D66"/><path d="M56.496 8.37H8.729l-.827.862v29.44c0 .451.366.817.818.817h47.513a.817.817 0 00.817-.817V9.232l-.554-.863z" fill="#E4F6FF"/><path d="M13.215 38.672V9.232l.827-.863H8.729l-.827.863v29.44c0 .451.366.817.818.817h5.312a.818.818 0 01-.817-.817z" fill="#D3EFFB"/><path d="M13.215 4.385H8.72a.817.817 0 00-.818.817v4.03h5.313l.35-.373V4.644l-.35-.26z" fill="#DD636E"/><path d="M56.233 4.385H13.215v4.847H57.05v-4.03a.817.817 0 00-.817-.817z" fill="#B1E4F9"/><path d="M64.192 43.545H.76a.765.765 0 00-.761.768v2.642c0 1.96 1.588 3.563 3.53 3.563h57.893c1.941 0 3.53-1.603 3.53-3.563v-2.642a.764.764 0 00-.761-.768z" fill="#407093"/><path d="M7.902 46.953V44.31c0-.424.34-.768.761-.768H.761A.765.765 0 000 44.31v2.642c0 1.96 1.588 3.563 3.53 3.563h7.902c-1.941 0-3.53-1.603-3.53-3.563zm60.374 6.112V25.947l.724-.685v-3.046a2.833 2.833 0 00-2.833-2.833H48.78a2.833 2.833 0 00-2.833 2.833v3.046l.81.73V53.32l-.81.502v4.025a2.833 2.833 0 002.833 2.833h17.386A2.833 2.833 0 0069 57.847V53.82l-.724-.756z" fill="#365E7D"/><path d="M50.124 57.847V53.82l.81-.501V25.993l-.81-.73v-3.047a2.833 2.833 0 012.833-2.833h-4.176a2.833 2.833 0 00-2.833 2.833v3.046l.81.73V53.32l-.81.502v4.025a2.833 2.833 0 002.833 2.833h4.176a2.833 2.833 0 01-2.833-2.833z" fill="#294B64"/><path d="M31.782 33.067a8.707 8.707 0 100-17.415 8.707 8.707 0 000 17.415z" fill="#DD636E"/><path d="M26.407 24.36c0-4.24 3.03-7.769 7.04-8.547a8.707 8.707 0 100 17.092c-4.01-.777-7.04-4.306-7.04-8.545z" fill="#DA4A54"/><path d="M35.325 23.46l-4.468-3.048a1.091 1.091 0 00-1.706.902v6.094c0 .877.982 1.395 1.706.901l4.468-3.047a1.091 1.091 0 000-1.803z" fill="#F4FBFF"/><path d="M32.483 21.52l-1.626-1.108a1.091 1.091 0 00-1.706.902v6.094c0 .877.982 1.395 1.706.901l1.626-1.108v-5.68z" fill="#E4F6FF"/><path d="M45.948 29.232H69v24.59H45.948v-24.59z" fill="#90D8F9"/><path d="M45.948 29.232h4.176v24.59h-4.176v-24.59z" fill="#75CEF9"/><path d="M58.58 58.07h-2.213a1.041 1.041 0 110-2.082h2.214a1.041 1.041 0 110 2.083z" fill="#365E7D"/><path d="M57.474 49.063a7.578 7.578 0 100-15.157 7.578 7.578 0 000 15.157z" fill="#DD636E"/><path d="M52.759 41.486a7.58 7.58 0 016.146-7.44 7.578 7.578 0 100 14.883 7.58 7.58 0 01-6.146-7.443z" fill="#DA4A54"/><path d="M45.948 25.262h4.245v4.167h-4.245v-4.167z" fill="#DD636E"/><path d="M50.124 25.262v4.167H69v-4.167H50.124z" fill="#B1E4F9"/><path d="M60.558 40.701l-3.889-2.651a.95.95 0 00-1.485.784v5.304a.95.95 0 001.485.785l3.889-2.652a.95.95 0 000-1.57z" fill="#F4FBFF"/><path d="M58.048 38.99l-1.379-.94a.95.95 0 00-1.485.784v5.304a.95.95 0 001.485.785l1.379-.94v-4.994z" fill="#E4F6FF"/></svg>
